packages/katcn/src/icons/svg/quotes.svg

<svg width="24" height="25" viewBox="0 0 24 25" fill="none" xmlns="http://www.w3.org/2000/svg">
<path d="M7.7 4.29602H4.5C2.6 4.29602 1 5.79602 1 7.69602V11.096C1 12.996 2.6 14.496 4.5 14.496H6.8C7.4 14.496 7.8 14.096 7.8 13.496C7.8 12.896 7.4 12.496 6.8 12.496H4.5C3.7 12.496 3 11.896 3 11.096V7.69602C3 6.89602 3.7 6.29602 4.5 6.29602H7.7C8.5 6.29602 9.2 6.89602 9.2 7.69602V10.196V10.296V15.996C9.2 17.296 8.2 18.296 6.9 18.296H5.3C4.7 18.296 4.3 18.696 4.3 19.296C4.3 19.896 4.7 20.296 5.3 20.296H6.9C9.3 20.296 11.2 18.396 11.2 15.996V10.296V10.196V7.69602C11.2 5.79602 9.6 4.29602 7.7 4.29602Z" fill="black"/>
<path d="M19.5 4.29602H16.3C14.4 4.29602 12.8 5.79602 12.8 7.69602V11.096C12.8 12.996 14.4 14.496 16.3 14.496H18.6C19.2 14.496 19.6 14.096 19.6 13.496C19.6 12.896 19.2 12.496 18.6 12.496H16.3C15.5 12.496 14.8 11.896 14.8 11.096V7.69602C14.8 6.89602 15.5 6.29602 16.3 6.29602H19.5C20.3 6.29602 21 6.89602 21 7.69602V10.196V10.296V15.996C21 17.296 20 18.296 18.7 18.296H17.1C16.5 18.296 16.1 18.696 16.1 19.296C16.1 19.896 16.5 20.296 17.1 20.296H18.7C21.1 20.296 23 18.396 23 15.996V10.296V10.196V7.69602C23 5.79602 21.4 4.29602 19.5 4.29602Z" fill="black"/>
</svg>

<svg xmlns="http://www.w3.org/2000/svg" fill="none" viewBox="0 0 24 25"><path fill="#000" d="M7.7 4.296H4.5c-1.9 0-3.5 1.5-3.5 3.4v3.4c0 1.9 1.6 3.4 3.5 3.4h2.3c.6 0 1-.4 1-1s-.4-1-1-1H4.5c-.8 0-1.5-.6-1.5-1.4v-3.4c0-.8.7-1.4 1.5-1.4h3.2c.8 0 1.5.6 1.5 1.4v8.3c0 1.3-1 2.3-2.3 2.3H5.3c-.6 0-1 .4-1 1s.4 1 1 1h1.6c2.4 0 4.3-1.9 4.3-4.3v-8.3c0-1.9-1.6-3.4-3.5-3.4m11.8 0h-3.2c-1.9 0-3.5 1.5-3.5 3.4v3.4c0 1.9 1.6 3.4 3.5 3.4h2.3c.6 0 1-.4 1-1s-.4-1-1-1h-2.3c-.8 0-1.5-.6-1.5-1.4v-3.4c0-.8.7-1.4 1.5-1.4h3.2c.8 0 1.5.6 1.5 1.4v8.3c0 1.3-1 2.3-2.3 2.3h-1.6c-.6 0-1 .4-1 1s.4 1 1 1h1.6c2.4 0 4.3-1.9 4.3-4.3v-8.3c0-1.9-1.6-3.4-3.5-3.4"/></svg>
